public/img/front-logo.svg

<svg width="747" height="165" viewBox="0 0 747 165" fill="none" xmlns="http://www.w3.org/2000/svg">
<g clip-path="url(#clip0)">
<path d="M493.236 157.728H478.403L473.825 164.738H470.795L488.225 138.543H490.99L497.814 164.738H495.006L493.236 157.728ZM492.707 155.486L489.104 141.319L479.854 155.486H492.707ZM517.638 138.501C520.121 138.354 522.581 139.041 524.621 140.45C525.446 141.102 526.104 141.939 526.538 142.892C526.973 143.845 527.173 144.886 527.121 145.93C527.203 147.387 526.95 148.843 526.381 150.19C525.812 151.537 524.942 152.738 523.836 153.705C521.654 155.542 518.641 156.46 514.798 156.46H507.297L505.591 164.738H502.825L508.123 138.543L517.638 138.501ZM514.841 154.029C517.336 154.188 519.811 153.488 521.844 152.049C522.684 151.329 523.344 150.426 523.772 149.412C524.2 148.398 524.386 147.299 524.313 146.202C524.359 145.452 524.222 144.702 523.912 144.016C523.602 143.33 523.129 142.729 522.533 142.262C521.023 141.269 519.225 140.794 517.416 140.911H510.444L507.752 154.029H514.841ZM550.972 140.9H541.573L536.795 164.738H534.019L538.787 140.9H529.505L529.992 138.501H551.406L550.972 140.9ZM549.912 153.422H559.84L559.385 155.748H549.457L549.912 153.422ZM577.927 151.326L585.651 164.738H582.663L575.649 152.667H569.503L567.088 164.738H564.312L569.609 138.543H572.375L569.991 150.32H575.903L587.272 138.543H590.451L577.927 151.326ZM616.58 138.501L611.282 164.696H608.559L613.369 140.858H600.527L598.408 149.629C597.707 152.708 596.783 155.733 595.643 158.682C595.002 160.492 593.951 162.134 592.57 163.481C591.456 164.457 590.011 164.984 588.523 164.958C587.808 164.955 587.097 164.867 586.403 164.696L587.092 162.223C587.476 162.322 587.871 162.372 588.268 162.37C588.822 162.374 589.37 162.266 589.88 162.053C590.39 161.841 590.851 161.528 591.235 161.134C592.293 159.973 593.107 158.616 593.63 157.141C594.556 154.707 595.307 152.21 595.876 149.67L598.567 138.459L616.58 138.501ZM638.83 157.728H623.997L619.419 164.738H616.378L633.819 138.543H636.584L643.408 164.738H640.6L638.83 157.728ZM638.301 155.486L634.677 141.319L625.427 155.486H638.301ZM660.806 164.969C658.507 165.026 656.226 164.556 654.141 163.596C652.376 162.765 650.901 161.433 649.903 159.771C648.91 158.031 648.408 156.059 648.451 154.061C648.414 151.288 649.101 148.553 650.443 146.118C651.757 143.73 653.715 141.749 656.101 140.397C658.686 138.961 661.613 138.238 664.578 138.302C666.504 138.268 668.419 138.606 670.214 139.297C671.729 139.858 673.046 140.841 674.008 142.126L672.037 143.845C670.342 141.805 667.777 140.781 664.345 140.774C661.923 140.728 659.536 141.344 657.447 142.556C655.492 143.698 653.893 145.351 652.827 147.334C651.73 149.359 651.168 151.627 651.195 153.925C651.136 155.093 651.334 156.26 651.775 157.345C652.215 158.431 652.889 159.408 653.749 160.212C655.458 161.762 657.892 162.538 661.049 162.538C662.593 162.598 664.133 162.351 665.579 161.811C667.024 161.271 668.344 160.449 669.462 159.394L671.094 161.228C669.849 162.478 668.33 163.428 666.654 164.005C664.782 164.668 662.805 164.998 660.816 164.979L660.806 164.969ZM697.763 140.869H688.365L683.586 164.707H680.852L685.536 140.9H676.254L676.741 138.501H698.155L697.763 140.869ZM705.455 140.869L703.548 150.236H717.322L716.867 152.594H703.093L701.122 162.339H717.079L716.581 164.738H697.805L703.103 138.543H721.296L720.808 140.942L705.455 140.869ZM737.592 138.469C740.072 138.322 742.529 139.009 744.564 140.418C745.389 141.071 746.047 141.908 746.481 142.86C746.916 143.813 747.116 144.854 747.064 145.898C747.148 147.355 746.897 148.811 746.33 150.158C745.763 151.504 744.895 152.706 743.79 153.673C741.6 155.51 738.588 156.429 734.752 156.429H727.176L725.47 164.707H722.705L728.003 138.511L737.592 138.469ZM734.72 154.029C737.206 154.175 739.668 153.472 741.692 152.039C742.531 151.318 743.189 150.415 743.615 149.4C744.042 148.386 744.225 147.288 744.151 146.192C744.197 145.442 744.059 144.692 743.749 144.006C743.439 143.32 742.966 142.718 742.37 142.252C740.861 141.258 739.062 140.783 737.253 140.9H730.281L727.632 154.029H734.72Z" fill="white"/>
<path d="M482.203 36.7049V7.5022L487.459 8.70719V37.9204L482.203 36.7049Z" fill="#40BBC1"/>
<path d="M490.107 38.5177V9.31494L495.363 10.5199V39.7331L490.107 38.5177Z" fill="#40BBC1"/>
<path d="M497.988 40.3724V11.1592L503.244 12.3747V41.5774L497.988 40.3724Z" fill="#40BBC1"/>
<path d="M41.3227 73.0852C42.9544 71.6183 44.1305 70.56 46.6205 70.5705C49.1104 70.5809 50.3607 71.6183 52.0136 73.1481C53.9314 74.877 56.3154 77.025 60.808 77.046C65.3005 77.0669 67.8116 74.8875 69.7612 73.1586C70.238 72.729 70.683 72.3413 71.1175 72.006L67.3878 68.2862L66.2329 69.334C64.58 70.8219 63.3827 71.8907 60.8291 71.8802C58.2756 71.8698 57.1843 70.8324 55.5313 69.3445C53.6029 67.5947 51.1977 65.4257 46.6099 65.4152C42.022 65.4047 39.638 67.5108 37.7202 69.2817C37.2857 69.6798 36.8831 70.0361 36.4805 70.3295L40.2631 74.0178C40.6339 73.7034 40.9836 73.3891 41.3227 73.0852Z" fill="#40BBC1"/>
<path d="M41.3227 50.725C42.9438 49.2476 44.1199 48.1997 46.6205 48.1997C49.121 48.1997 50.3607 49.2476 52.0136 50.7774C53.9314 52.5063 56.3154 54.6543 60.808 54.6753C65.3005 54.6962 67.8116 52.5168 69.7612 50.7879C70.238 50.3582 70.683 49.9706 71.1175 49.6353L67.3878 45.9155L66.2329 46.9633C64.58 48.4512 63.3827 49.52 60.8291 49.5095C58.2756 49.499 57.1843 48.4617 55.5313 46.9738C53.6029 45.2239 51.1977 43.055 46.6099 43.0445C42.022 43.034 39.638 45.1401 37.7202 46.9109C37.2857 47.3091 36.8831 47.6654 36.4805 47.9587L40.2631 51.6575C40.6339 51.3432 40.9836 51.0289 41.3227 50.725Z" fill="#40BBC1"/>
<path d="M41.3202 61.9048C42.9519 60.4379 44.128 59.3796 46.618 59.3901C49.1079 59.4005 50.3582 60.4379 52.0111 61.9677C53.9289 63.6966 56.3129 65.8446 60.8055 65.8656C65.298 65.8865 67.8092 63.7071 69.7905 61.9782C70.2673 61.5486 70.7123 61.1609 71.1468 60.8256L67.4171 57.1058L66.2622 58.1536C64.6093 59.6415 63.412 60.7103 60.8584 60.6998C58.3049 60.6893 57.2136 59.652 55.5606 58.1641C53.6322 56.4142 51.227 54.2453 46.6392 54.2348C42.0513 54.2243 39.6673 56.3304 37.7495 58.1012C37.315 58.4994 36.9124 58.8557 36.5098 59.1491L40.2606 62.8688C40.6315 62.5545 40.9811 62.2401 41.3202 61.9363" fill="#40BBC1"/>
<path d="M702.061 31.3402L684.356 19.8142L636.75 114.118L654.498 122.385L660.039 120.122L669.448 102.477H711.015L717.181 114.212H741.964V110.744L702.061 31.3402ZM678.189 82.0756L690.078 57.5042L702.284 82.0756H678.189Z" fill="white"/>
<path d="M164.751 31.3402L147.045 19.8142L99.4395 114.118L117.187 122.385L122.729 120.122L132.137 102.477H173.704L179.881 114.212H204.654V110.744L164.751 31.3402ZM140.921 82.0756L152.809 57.5042L165.005 82.0756H140.921Z" fill="white"/>
<path d="M285.884 67.2385C288.376 65.3091 290.408 62.8619 291.838 60.0699C293.268 57.2779 294.06 54.2093 294.159 51.0811C294.159 34.9238 279.558 21.4384 261.313 21.4384H216.281V115.847H265.678C287.219 115.847 298.355 102.634 298.524 86.3402C298.524 78.0625 294.466 71.1154 285.884 67.2385ZM242.357 40.1H259.225C271.082 40.1 271.421 59.7885 259.374 59.7885H242.357V40.1ZM263.898 96.4517H242.357V77.0042H263.739C276.263 77.0042 276.337 96.4517 263.898 96.4517Z" fill="white"/>
<path d="M580.959 31.4345L565.808 21.4384L529.709 95.1524H519.018V105.924V117.544L538.005 124.177L541.417 121.474V115.512H603.729H625.863V95.1524H611.941L580.959 31.4345ZM556.971 94.88L571.582 61.0983L586.787 94.88H556.971Z" fill="white"/>
<path d="M107.164 40.1419V37.1032L103.71 21.4384H0V23.8588L3.76144 40.1419" fill="white"/>
<path d="M368.451 21.4384H319.383V115.847L342.29 123.852L346.402 121.337L346.349 87.5976H368.451C418.907 87.5976 418.907 21.585 368.451 21.4384ZM368.303 69.638H346.338V40.0057H368.303C389.939 40.0057 389.123 69.6485 368.303 69.6485" fill="white"/>
<path d="M423.961 23.0519V117.041L441.359 123.716L481.961 79.4769L481.876 113.531C482.067 113.531 498.681 118.644 498.681 118.644L502.919 116.203V46.4078L481.866 41.0534L444.781 81.5516V23.0519" fill="white"/>
<path d="M41.6719 79.76V115.847L61.4221 123.852L65.4802 121.337V79.76" fill="white"/>
<path d="M703.08 0.544658C705.089 1.20475 706.854 2.439 708.154 4.09135C709.453 5.7437 710.227 7.73993 710.379 9.82761C710.531 11.9153 710.054 14.0007 709.008 15.82C707.961 17.6394 706.393 19.111 704.5 20.0488C702.608 20.9866 700.477 21.3485 698.377 21.0887C696.277 20.8289 694.302 19.959 692.701 18.5891C691.101 17.2193 689.948 15.4109 689.387 13.3926C688.826 11.3744 688.882 9.23701 689.55 7.2507C689.992 5.93096 690.693 4.71037 691.612 3.6588C692.532 2.60724 693.652 1.74534 694.909 1.12244C696.165 0.499551 697.534 0.127896 698.936 0.0287514C700.339 -0.0703929 701.747 0.104921 703.08 0.544658Z" fill="#40BBC1"/>
</g>
<defs>
<clipPath id="clip0">
<rect width="747" height="165" fill="white"/>
</clipPath>
</defs>
</svg>

<svg width="747" height="165" fill="none" xmlns="http://www.w3.org/2000/svg"><g clip-path="url(#clip0)"><path d="M493.236 157.728h-14.833l-4.578 7.01h-3.03l17.43-26.195h2.765l6.824 26.195h-2.808l-1.77-7.01zm-.529-2.242l-3.603-14.167-9.25 14.167h12.853zm24.931-16.985c2.483-.147 4.943.54 6.983 1.949a6.604 6.604 0 011.917 2.442c.435.953.635 1.994.583 3.038a9.563 9.563 0 01-.74 4.26 9.666 9.666 0 01-2.545 3.515c-2.182 1.837-5.195 2.755-9.038 2.755h-7.501l-1.706 8.278h-2.766l5.298-26.195 9.515-.042zm-2.797 15.528c2.495.159 4.97-.541 7.003-1.98.84-.72 1.5-1.623 1.928-2.637a7.05 7.05 0 00.541-3.21 4.62 4.62 0 00-.401-2.186 4.675 4.675 0 00-1.379-1.754 8.337 8.337 0 00-5.117-1.351h-6.972l-2.692 13.118h7.089zm36.131-13.129h-9.399l-4.778 23.838h-2.776l4.768-23.838h-9.282l.487-2.399h21.414l-.434 2.399zm-1.06 12.522h9.928l-.455 2.326h-9.928l.455-2.326zm28.015-2.096l7.724 13.412h-2.988l-7.014-12.071h-6.146l-2.415 12.071h-2.776l5.297-26.195h2.766l-2.384 11.777h5.912l11.369-11.777h3.179l-12.524 12.783zm38.653-12.825l-5.298 26.195h-2.723l4.81-23.838h-12.842l-2.119 8.771a65.323 65.323 0 01-2.765 9.053 12.565 12.565 0 01-3.073 4.799 5.985 5.985 0 01-4.047 1.477 9.015 9.015 0 01-2.12-.262l.689-2.473c.384.099.779.149 1.176.147a4.105 4.105 0 002.967-1.236 11.766 11.766 0 002.395-3.993 54.545 54.545 0 002.246-7.471l2.691-11.211 18.013.042zm22.25 19.227h-14.833l-4.578 7.01h-3.041l17.441-26.195h2.765l6.824 26.195H640.6l-1.77-7.01zm-.529-2.242l-3.624-14.167-9.25 14.167h12.874zm22.505 9.483a15.047 15.047 0 01-6.665-1.373 9.82 9.82 0 01-4.238-3.825 11.038 11.038 0 01-1.452-5.71 16.01 16.01 0 011.992-7.943 14.757 14.757 0 015.658-5.721 16.716 16.716 0 018.477-2.095 14.958 14.958 0 015.636.995 8.366 8.366 0 013.794 2.829l-1.971 1.719c-1.695-2.04-4.26-3.064-7.692-3.071a13.246 13.246 0 00-6.898 1.782 12.262 12.262 0 00-4.62 4.778 13.504 13.504 0 00-1.632 6.591 8.009 8.009 0 00.58 3.42 8.079 8.079 0 001.974 2.867c1.709 1.55 4.143 2.326 7.3 2.326 1.544.06 3.084-.187 4.53-.727a11.545 11.545 0 003.883-2.417l1.632 1.834a11.59 11.59 0 01-4.44 2.777 17.005 17.005 0 01-5.838.974l-.01-.01zm36.957-24.1h-9.398l-4.779 23.838h-2.734l4.684-23.807h-9.282l.487-2.399h21.414l-.392 2.368zm7.692 0l-1.907 9.367h13.774l-.455 2.358h-13.774l-1.971 9.745h15.957l-.498 2.399h-18.776l5.298-26.195h18.193l-.488 2.399-15.353-.073zm32.137-2.4c2.48-.147 4.937.54 6.972 1.949a6.62 6.62 0 011.917 2.442c.435.953.635 1.994.583 3.038a9.558 9.558 0 01-.734 4.26 9.65 9.65 0 01-2.54 3.515c-2.19 1.837-5.202 2.756-9.038 2.756h-7.576l-1.706 8.278h-2.765l5.298-26.196 9.589-.042zm-2.872 15.56a10.96 10.96 0 006.972-1.99 7.106 7.106 0 001.923-2.639 7.041 7.041 0 00.536-3.208 4.62 4.62 0 00-.402-2.186 4.667 4.667 0 00-1.379-1.754 8.33 8.33 0 00-5.117-1.352h-6.972l-2.649 13.129h7.088z" fill="#fff"/><path d="M482.203 36.705V7.502l5.256 1.205V37.92l-5.256-1.215zm7.904 1.813V9.315l5.256 1.205v29.213l-5.256-1.215zm7.881 1.854V11.16l5.256 1.216v29.202l-5.256-1.205zM41.323 73.085c1.631-1.467 2.807-2.525 5.297-2.514 2.49.01 3.74 1.047 5.394 2.577 1.917 1.729 4.301 3.877 8.794 3.898 4.492.02 7.004-2.159 8.953-3.887.477-.43.922-.818 1.357-1.153l-3.73-3.72-1.155 1.048c-1.653 1.488-2.85 2.557-5.404 2.546-2.553-.01-3.645-1.048-5.298-2.535-1.928-1.75-4.333-3.92-8.921-3.93-4.588-.01-6.972 2.096-8.89 3.867-.434.398-.837.754-1.24 1.047l3.783 3.689c.37-.315.72-.629 1.06-.933zm0-22.36c1.62-1.477 2.797-2.525 5.297-2.525 2.501 0 3.74 1.048 5.394 2.577 1.917 1.73 4.301 3.877 8.794 3.898 4.492.021 7.004-2.158 8.953-3.887.477-.43.922-.817 1.357-1.153l-3.73-3.72-1.155 1.048c-1.653 1.488-2.85 2.557-5.404 2.547-2.553-.011-3.645-1.048-5.298-2.536-1.928-1.75-4.333-3.919-8.921-3.93-4.588-.01-6.972 2.096-8.89 3.867-.434.398-.837.754-1.24 1.048l3.783 3.698c.37-.314.72-.628 1.06-.932zm-.003 11.18c1.632-1.467 2.808-2.525 5.298-2.515 2.49.01 3.74 1.048 5.393 2.578 1.918 1.729 4.302 3.877 8.794 3.898 4.493.02 7.004-2.159 8.985-3.888.477-.43.922-.817 1.357-1.152l-3.73-3.72-1.155 1.048c-1.653 1.487-2.85 2.556-5.404 2.546-2.553-.01-3.644-1.048-5.297-2.536-1.929-1.75-4.334-3.919-8.922-3.93-4.588-.01-6.972 2.096-8.89 3.867a14.76 14.76 0 01-1.24 1.048l3.752 3.72c.37-.315.72-.629 1.06-.933" fill="#40BBC1"/><path d="M702.061 31.34l-17.705-11.526-47.606 94.304 17.748 8.267 5.541-2.263 9.409-17.645h41.567l6.166 11.735h24.783v-3.468L702.061 31.34zm-23.872 50.736l11.889-24.572 12.206 24.572h-24.095zM164.751 31.34l-17.706-11.526-47.605 94.304 17.747 8.267 5.542-2.263 9.408-17.645h41.567l6.177 11.735h24.773v-3.468L164.751 31.34zm-23.83 50.736l11.888-24.572 12.196 24.572h-24.084zm144.963-14.837a21.415 21.415 0 005.954-7.17 21.185 21.185 0 002.321-8.988c0-16.157-14.601-29.643-32.846-29.643h-45.032v94.409h49.397c21.541 0 32.677-13.213 32.846-29.507 0-8.278-4.058-15.225-12.64-19.102zM242.357 40.1h16.868c11.857 0 12.196 19.688.149 19.688h-17.017V40.1zm21.541 56.352h-21.541V77.004h21.382c12.524 0 12.598 19.448.159 19.448zm317.061-65.018l-15.151-9.996-36.099 73.714h-10.691v22.392l18.987 6.633 3.412-2.703v-5.962h84.446v-20.36h-13.922l-30.982-63.718zM556.971 94.88l14.611-33.782 15.205 33.782h-29.816zM107.164 40.142v-3.039l-3.454-15.665H0v2.42l3.761 16.284m364.69-18.704h-49.068v94.409l22.907 8.005 4.112-2.515-.053-33.74h22.102c50.456 0 50.456-66.012 0-66.159zm-.148 48.2h-21.965V40.006h21.965c21.636 0 20.82 29.642 0 29.642m55.658-46.596v93.989l17.398 6.675 40.602-44.24-.085 34.055c.191 0 16.805 5.113 16.805 5.113l4.238-2.441V46.408l-21.053-5.355-37.085 40.499v-58.5M41.672 79.76v36.087l19.75 8.005 4.058-2.515V79.76" fill="#fff"/><path d="M703.08.545a10.704 10.704 0 015.074 3.546 10.49 10.49 0 01.854 11.729 10.652 10.652 0 01-4.508 4.229 10.806 10.806 0 01-6.123 1.04c-2.1-.26-4.075-1.13-5.676-2.5a10.568 10.568 0 01-3.314-5.196 10.466 10.466 0 01.163-6.142 10.552 10.552 0 012.062-3.592 10.68 10.68 0 013.297-2.537 10.8 10.8 0 018.171-.578z" fill="#40BBC1"/></g><defs><clipPath id="clip0"><path fill="#fff" d="M0 0h747v165H0z"/></clipPath></defs></svg>
